src/scalable/apps/pcbnew-nightly.svg

<svg width="64" height="64" version="1.1" viewBox="0 0 64 64" xmlns="http://www.w3.org/2000/svg">
 <ellipse cx="32" cy="32" rx="27" ry="27" fill="#006442"/>
 <path d="m32 5c-1.5332 0-3.0366 0.12753-4.5 0.37305v13.127l9 9h13.5v-4.5h-11.25l-6.75-6.75v-11.25zm5.625 0.58594v8.4141l3.375 3.375h3.1973c1.7389-1.4071 3.954-2.25 6.3652-2.25 0.9827 0 1.9317 0.13929 2.8301 0.40039-3.8437-4.9842-9.3894-8.5878-15.768-9.9395zm-14.625 0.95117c-0.7665 0.27091-1.5171 0.57377-2.25 0.91016v13.865l9 9v15.75l-9 6.75v3.7402c0.7329 0.3364 1.4835 0.63926 2.25 0.91016v-3.5254l9-6.75v-18l-9-9v-13.65zm-4.5 2.0742c-0.7752 0.44842-1.526 0.93428-2.25 1.4551v13.496l9 9v11.25l-9 6.75v3.3711c0.724 0.5208 1.4748 1.0067 2.25 1.4551v-3.7012l9-6.75v-13.5l-9-9v-13.826zm-4.5 3.2637c-0.7937 0.7104-1.5451 1.4669-2.25 2.2656v11.672l9 9v6.75l-9 6.75v1.5469c0.7049 0.7987 1.4563 1.5552 2.25 2.2656v-2.6875l9-6.75v-9l-9-9v-12.812zm22.5 20.125-1.125 1.125v14.625l-9 6.75v3.9141c1.8144 0.3845 3.6961 0.58594 5.625 0.58594 3.1557 0 6.185-0.54211 9-1.5371v-2.9629c0-1.2426 1.0074-2.25 2.25-2.25h6.6094c1.1671-1.0301 2.2444-2.1595 3.2188-3.375h-1.9531v-4.5h4.8789c1.9151-3.7071 2.9961-7.9148 2.9961-12.375h-0.89062c-1.854 2.0714-4.5482 3.375-7.5469 3.375s-5.6929-1.3036-7.5469-3.375h-6.5156zm-31.291 3.375c0.19257 1.5443 0.515 3.0481 0.95703 4.5h6.709v-4.5h-7.666zm37.791 2.25h3.625v4.5h-5.625v-2.5c0-1.1046 0.8954-2 2-2zm8.125 0h3.625c1.1046 0 2 0.8954 2 2v2.5h-5.625v-4.5zm-10.125 6.75h5.625v4.5h-3.625c-1.1046 0-2-0.8954-2-2v-2.5z" fill="#ffffff" opacity=".35"/>
 <path d="m45.25 39.875c-1.1046 0-2 0.8954-2 2v2.75c0 1.1046 0.8954 2 2 2h7.25c1.1046 0 2-0.8954 2-2v-2.75c0-1.1046-0.8954-2-2-2h-7.25zm0.25 14.625h1.4301c-1.1635 0.7735-2.3903 1.4593-3.6711 2.0477 0.1023-1.1479 1.0665-2.0477 2.241-2.0477z" clip-rule="evenodd" fill="#ffd42a" fill-rule="evenodd"/>
 <path d="m50.562 29.75c2.4853 0 4.5-2.0147 4.5-4.5s-2.0147-4.5-4.5-4.5-4.5 2.0147-4.5 4.5 2.0147 4.5 4.5 4.5zm-37.688 12.375c2.4853 0 4.5-2.0147 4.5-4.5s-2.0147-4.5-4.5-4.5-4.5 2.0147-4.5 4.5 2.0147 4.5 4.5 4.5z" clip-rule="evenodd" fill="#ffd42a" fill-rule="evenodd"/>
 <path d="m50.562 26.938c0.932 0 1.6875-0.7555 1.6875-1.6875s-0.7555-1.6875-1.6875-1.6875-1.6875 0.7555-1.6875 1.6875 0.7555 1.6875 1.6875 1.6875zm-37.688 12.375c0.932 0 1.6875-0.7555 1.6875-1.6875s-0.7555-1.6875-1.6875-1.6875-1.6875 0.7555-1.6875 1.6875 0.7555 1.6875 1.6875 1.6875z" clip-rule="evenodd" fill="white" fill-rule="evenodd"/>
 <path d="m50.562 26.938c0.932 0 1.6875-0.7555 1.6875-1.6875s-0.7555-1.6875-1.6875-1.6875-1.6875 0.7555-1.6875 1.6875 0.7555 1.6875 1.6875 1.6875zm-37.688 12.375c0.932 0 1.6875-0.7555 1.6875-1.6875s-0.7555-1.6875-1.6875-1.6875-1.6875 0.7555-1.6875 1.6875 0.7555 1.6875 1.6875 1.6875z" clip-rule="evenodd" fill="white" fill-rule="evenodd"/>
</svg>

<svg xmlns="http://www.w3.org/2000/svg" width="64" height="64"><circle cx="32" cy="32" r="27" fill="#006442"/><path fill="#fff" d="M32 5c-1.533 0-3.037.128-4.5.373V18.5l9 9H50V23H38.75L32 16.25V5zm5.625.586V14L41 17.375h3.197a10.085 10.085 0 0 1 6.365-2.25c.983 0 1.932.14 2.83.4-3.843-4.984-9.389-8.587-15.767-9.94zM23 6.537c-.766.271-1.517.574-2.25.91v13.865l9 9v15.75l-9 6.75v3.74c.733.337 1.484.64 2.25.91v-3.525l9-6.75v-18l-9-9V6.537zm-4.5 2.074a27.03 27.03 0 0 0-2.25 1.455v13.496l9 9v11.25l-9 6.75v3.372a27.03 27.03 0 0 0 2.25 1.455v-3.702l9-6.75v-13.5l-9-9V8.611zM14 11.875a27.162 27.162 0 0 0-2.25 2.266v11.672l9 9v6.75l-9 6.75v1.547A27.162 27.162 0 0 0 14 52.125v-2.687l9-6.75v-9l-9-9V11.876zM36.5 32l-1.125 1.125V47.75l-9 6.75v3.914A27.11 27.11 0 0 0 32 59c3.156 0 6.185-.542 9-1.537V54.5a2.25 2.25 0 0 1 2.25-2.25h6.61a27.164 27.164 0 0 0 3.218-3.375h-1.953v-4.5h4.879A26.884 26.884 0 0 0 59 32h-.89c-1.855 2.071-4.549 3.375-7.547 3.375S44.87 34.071 43.016 32H36.5zM5.209 35.375c.193 1.544.515 3.048.957 4.5h6.709v-4.5H5.209zM43 37.625h3.625v4.5H41v-2.5a2 2 0 0 1 2-2zm8.125 0h3.625a2 2 0 0 1 2 2v2.5h-5.625v-4.5zM41 44.375h5.625v4.5H43a2 2 0 0 1-2-2v-2.5z" opacity=".35"/><path fill="#ffd42a" fill-rule="evenodd" d="M45.25 39.875a2 2 0 0 0-2 2v2.75a2 2 0 0 0 2 2h7.25a2 2 0 0 0 2-2v-2.75a2 2 0 0 0-2-2h-7.25zM45.5 54.5h1.43a26.961 26.961 0 0 1-3.671 2.048A2.25 2.25 0 0 1 45.5 54.5zM50.562 29.75a4.5 4.5 0 1 0 0-9 4.5 4.5 0 0 0 0 9zM12.874 42.125a4.5 4.5 0 1 0 0-9 4.5 4.5 0 0 0 0 9z" clip-rule="evenodd"/><path fill="#fff" fill-rule="evenodd" d="M50.562 26.938a1.687 1.687 0 1 0 0-3.375 1.687 1.687 0 0 0 0 3.375zM12.874 39.313a1.687 1.687 0 1 0 0-3.375 1.687 1.687 0 0 0 0 3.375z" clip-rule="evenodd"/><path fill="#fff" fill-rule="evenodd" d="M50.562 26.938a1.687 1.687 0 1 0 0-3.375 1.687 1.687 0 0 0 0 3.375zM12.874 39.313a1.687 1.687 0 1 0 0-3.375 1.687 1.687 0 0 0 0 3.375z" clip-rule="evenodd"/></svg>
